icons/4_Outdated/Clubhouse.svg

<svg width="1024" height="1024" viewBox="0 0 1024 1024" fill="none" xmlns="http://www.w3.org/2000/svg">
<g clip-path="url(#clip0_3_506)">
<path d="M512 1024C794.77 1024 1024 794.77 1024 512C1024 229.23 794.77 0 512 0C229.23 0 0 229.23 0 512C0 794.77 229.23 1024 512 1024Z" fill="#8C72BD"/>
<path d="M330.3 674.198C330.29 681.544 328.103 688.722 324.015 694.824C319.927 700.927 314.121 705.681 307.332 708.485C300.543 711.289 293.075 712.018 285.872 710.579C278.669 709.139 272.054 705.597 266.863 700.4C261.673 695.202 258.14 688.583 256.71 681.378C255.281 674.173 256.019 666.706 258.833 659.92C261.646 653.135 266.408 647.336 272.516 643.256C278.624 639.176 285.805 636.998 293.15 636.998C303.003 637.025 312.445 640.954 319.407 647.926C326.37 654.898 330.287 664.345 330.3 674.198ZM690.42 444.898L767.92 520.618L481.92 611.808V538.398L264.35 607.898V394.058L516.58 313.538V387.308L750.5 312.648L690.42 444.898ZM481.92 361.178L299.19 419.478V560.078L481.92 501.778V361.178ZM649 452.178L688.46 368.998L516.58 423.928V564.348L703.22 504.798L649 452.178Z" fill="white"/>
</g>
<defs>
<clipPath id="clip0_3_506">
<rect width="1024" height="1024" fill="white"/>
</clipPath>
</defs>
</svg>

<svg xmlns="http://www.w3.org/2000/svg" viewBox="0 0 1024 1024">
   <circle cx="512" cy="512" r="512" style="fill:#6515dd"/>
   <path d="M330.3 674.2a37.15 37.15 0 1 1-37.15-37.2 37.25 37.25 0 0 1 37.15 37.2Zm360.12-229.3 77.5 75.72-286 91.19V538.4l-217.57 69.5V394.06l252.23-80.52v73.77l233.92-74.66Zm-208.5-83.72-182.73 58.3v140.6l182.73-58.3Zm167.08 91L688.46 369l-171.88 54.93v140.42l186.64-59.55Z" style="fill:#fff"/>
</svg>
